X: 1
T: Hey, Johnnie Cope
O: Arr Peter White
R: march
Z: 2010 John Chambers <jc:trillian.mit.edu>
B: Hugh Foss "DANCES to SONG TUNES" 1966 (music: Peter White)
M: C
L: 1/8
K: Am
EG \
| "Am"A2A2 A2Bd | e2A2 A2GE | "G"G2G2 GABc | dedc B2AG |
| "Am"c2c2 "Dm"e3c | "Em"e2g2 B2AG | "Am"E2g2 "E7"edcB | "Am"A4 A2 |]
z2 \
| "C"c2cc cGEG | cdef g2dc | "G"B2G2 d2G2 | Bcde d2cB |
| "Am"cBcd "Dm"edea | "Am"gedc "Em"B2AG | "Am"E2g2 "E7"edcB | "Am"A4 A2 |]
